public/images/hashed/405ed19e419c12e7370a462ba4fd8472.svg

<?xml version="1.0" encoding="UTF-8"?>
<svg width="80px" height="80px" viewBox="0 0 80 80" version="1.1" xmlns="http://www.w3.org/2000/svg" xmlns:xlink="http://www.w3.org/1999/xlink">
    <!-- Generator: Sketch 64 (93537) - https://sketch.com -->
    <title>Icon-Architecture/64/Arch_AWS-Express-Workflow_64</title>
    <desc>Created with Sketch.</desc>
    <defs>
        <linearGradient x1="0%" y1="100%" x2="100%" y2="0%" id="linearGradient-1">
            <stop stop-color="#B0084D" offset="0%"></stop>
            <stop stop-color="#FF4F8B" offset="100%"></stop>
        </linearGradient>
    </defs>
    <g id="Icon-Architecture/64/Arch_AWS-Express-Workflow_64" stroke="none" stroke-width="1" fill="none" fill-rule="evenodd">
        <g id="Icon-Architecture-BG/64/Application-Integration" fill="url(#linearGradient-1)">
            <rect id="Rectangle" x="0" y="0" width="80" height="80"></rect>
        </g>
        <path d="M64.830362,44 L43.901362,44 L45.777362,37 L66.706362,37 L64.830362,44 Z M68.803362,35.391 C68.614362,35.145 68.320362,35 68.010362,35 L45.010362,35 C44.558362,35 44.161362,35.304 44.044362,35.741 L41.632362,44.741 C41.551362,45.042 41.615362,45.362 41.805362,45.609 C41.993362,45.855 42.287362,46 42.598362,46 L65.598362,46 C66.050362,46 66.446362,45.696 66.563362,45.259 L68.976362,36.259 C69.057362,35.958 68.992362,35.638 68.803362,35.391 L68.803362,35.391 Z M43.304362,62.5 C43.304362,64.43 41.733362,66 39.804362,66 C37.874362,66 36.304362,64.43 36.304362,62.5 C36.304362,60.57 37.874362,59 39.804362,59 C41.733362,59 43.304362,60.57 43.304362,62.5 L43.304362,62.5 Z M14.375362,43 L32.305362,43 L31.232362,47 L13.303362,47 L14.375362,43 Z M14.375362,33 L32.305362,33 L31.232362,37 L13.303362,37 L14.375362,33 Z M36.304362,17.5 C36.304362,15.57 37.874362,14 39.804362,14 C41.733362,14 43.304362,15.57 43.304362,17.5 C43.304362,19.43 41.733362,21 39.804362,21 C37.874362,21 36.304362,19.43 36.304362,17.5 L36.304362,17.5 Z M55.804362,53 L23.804362,53 L23.804362,49 L32.000362,49 C32.452362,49 32.849362,48.696 32.966362,48.259 L34.573362,42.259 C34.654362,41.958 34.590362,41.638 34.400362,41.391 C34.212362,41.145 33.918362,41 33.607362,41 L23.804362,41 L23.804362,39 L32.000362,39 C32.452362,39 32.849362,38.696 32.966362,38.259 L34.573362,32.259 C34.654362,31.958 34.590362,31.638 34.400362,31.391 C34.212362,31.145 33.918362,31 33.607362,31 L23.804362,31 L23.804362,28 L55.804362,28 L55.804362,32 L57.804362,32 L57.804362,27 C57.804362,26.448 57.356362,26 56.804362,26 L40.804362,26 L40.804362,22.904 C43.359362,22.432 45.304362,20.191 45.304362,17.5 C45.304362,14.467 42.836362,12 39.804362,12 C36.771362,12 34.304362,14.467 34.304362,17.5 C34.304362,20.191 36.248362,22.432 38.804362,22.904 L38.804362,26 L22.804362,26 C22.251362,26 21.804362,26.448 21.804362,27 L21.804362,31 L13.607362,31 C13.155362,31 12.759362,31.304 12.642362,31.741 L11.034362,37.741 C10.953362,38.042 11.017362,38.362 11.207362,38.609 C11.395362,38.855 11.689362,39 12.000362,39 L21.804362,39 L21.804362,41 L13.607362,41 C13.155362,41 12.759362,41.304 12.642362,41.741 L11.034362,47.741 C10.953362,48.042 11.017362,48.362 11.207362,48.609 C11.395362,48.855 11.689362,49 12.000362,49 L21.804362,49 L21.804362,54 C21.804362,54.552 22.251362,55 22.804362,55 L38.804362,55 L38.804362,57.096 C36.248362,57.568 34.304362,59.809 34.304362,62.5 C34.304362,65.533 36.771362,68 39.804362,68 C42.836362,68 45.304362,65.533 45.304362,62.5 C45.304362,59.809 43.359362,57.568 40.804362,57.096 L40.804362,55 L56.804362,55 C57.356362,55 57.804362,54.552 57.804362,54 L57.804362,49.027 L55.804362,49.027 L55.804362,53 Z" id="AWS-Express-Workflow-Icon_64_Squid" fill="#FFFFFF"></path>
    </g>
</svg>

<svg xmlns="http://www.w3.org/2000/svg" width="80" height="80"><defs><linearGradient id="a" x1="0%" x2="100%" y1="100%" y2="0%"><stop offset="0%" stop-color="#B0084D"/><stop offset="100%" stop-color="#FF4F8B"/></linearGradient></defs><g fill="none" fill-rule="evenodd"><path fill="url(#a)" d="M0 0h80v80H0z"/><path fill="#FFF" d="M64.83 44H43.901l1.876-7h20.93l-1.877 7Zm3.973-8.609A1.002 1.002 0 0 0 68.01 35h-23a1 1 0 0 0-.966.741l-2.412 9A.999.999 0 0 0 42.598 46h23a1 1 0 0 0 .965-.741l2.413-9a1 1 0 0 0-.173-.868ZM43.304 62.5c0 1.93-1.57 3.5-3.5 3.5s-3.5-1.57-3.5-3.5 1.57-3.5 3.5-3.5 3.5 1.57 3.5 3.5ZM14.375 43h17.93l-1.073 4H13.303l1.072-4Zm0-10h17.93l-1.073 4H13.303l1.072-4Zm21.93-15.5c0-1.93 1.57-3.5 3.5-3.5 1.928 0 3.5 1.57 3.5 3.5s-1.572 3.5-3.5 3.5c-1.93 0-3.5-1.57-3.5-3.5Zm19.5 35.5h-32v-4H32a1 1 0 0 0 .966-.741l1.607-6A.999.999 0 0 0 33.607 41h-9.803v-2H32a1 1 0 0 0 .966-.741l1.607-6A.999.999 0 0 0 33.607 31h-9.803v-3h32v4h2v-5a1 1 0 0 0-1-1h-16v-3.096c2.555-.472 4.5-2.713 4.5-5.404 0-3.033-2.468-5.5-5.5-5.5a5.506 5.506 0 0 0-5.5 5.5c0 2.691 1.944 4.932 4.5 5.404V26h-16a1 1 0 0 0-1 1v4h-8.197a1 1 0 0 0-.965.741l-1.608 6A.999.999 0 0 0 12 39h9.804v2h-8.197a1 1 0 0 0-.965.741l-1.608 6A.999.999 0 0 0 12 49h9.804v5a1 1 0 0 0 1 1h16v2.096c-2.556.472-4.5 2.713-4.5 5.404 0 3.033 2.467 5.5 5.5 5.5 3.032 0 5.5-2.467 5.5-5.5 0-2.691-1.945-4.932-4.5-5.404V55h16a1 1 0 0 0 1-1v-4.973h-2V53Z"/></g></svg>
